documentation/public/assets/images/01-link-structure.svg

<svg width="672" height="73" viewBox="0 0 672 73" fill="none" xmlns="http://www.w3.org/2000/svg">
<rect width="672" height="73" fill="#F6F6F6"/>
<path d="M295.057 41V32.2727H296.114V40.0625H300.17V41H295.057ZM301.67 41V34.4545H302.676V41H301.67ZM302.182 33.3636C301.986 33.3636 301.817 33.2969 301.675 33.1634C301.536 33.0298 301.466 32.8693 301.466 32.6818C301.466 32.4943 301.536 32.3338 301.675 32.2003C301.817 32.0668 301.986 32 302.182 32C302.378 32 302.545 32.0668 302.685 32.2003C302.827 32.3338 302.898 32.4943 302.898 32.6818C302.898 32.8693 302.827 33.0298 302.685 33.1634C302.545 33.2969 302.378 33.3636 302.182 33.3636ZM305.524 37.0625V41H304.518V34.4545H305.49V35.4773H305.575C305.728 35.1449 305.961 34.8778 306.274 34.6761C306.586 34.4716 306.99 34.3693 307.484 34.3693C307.927 34.3693 308.315 34.4602 308.647 34.642C308.98 34.821 309.238 35.0938 309.423 35.4602C309.608 35.8239 309.7 36.2841 309.7 36.8409V41H308.694V36.9091C308.694 36.3949 308.561 35.9943 308.294 35.7074C308.027 35.4176 307.66 35.2727 307.194 35.2727C306.873 35.2727 306.586 35.3423 306.333 35.4815C306.083 35.6207 305.886 35.8239 305.741 36.0909C305.596 36.358 305.524 36.6818 305.524 37.0625ZM312.475 38.6136L312.458 37.3693H312.663L315.526 34.4545H316.771L313.719 37.5398H313.634L312.475 38.6136ZM311.538 41V32.2727H312.543V41H311.538ZM315.697 41L313.14 37.7614L313.856 37.0625L316.975 41H315.697ZM324.27 41H321.576V32.2727H324.389C325.235 32.2727 325.96 32.4474 326.562 32.7969C327.164 33.1435 327.626 33.642 327.947 34.2926C328.268 34.9403 328.429 35.7159 328.429 36.6193C328.429 37.5284 328.267 38.3111 327.943 38.9673C327.619 39.6207 327.147 40.1236 326.528 40.4759C325.909 40.8253 325.156 41 324.27 41ZM322.633 40.0625H324.201C324.923 40.0625 325.521 39.9233 325.995 39.6449C326.47 39.3665 326.824 38.9702 327.056 38.456C327.289 37.9418 327.406 37.3295 327.406 36.6193C327.406 35.9148 327.291 35.3082 327.061 34.7997C326.831 34.2884 326.487 33.8963 326.029 33.6236C325.572 33.348 325.002 33.2102 324.321 33.2102H322.633V40.0625ZM332.809 41.1364C332.179 41.1364 331.635 40.9972 331.177 40.7188C330.723 40.4375 330.372 40.0455 330.125 39.5426C329.88 39.0369 329.758 38.4489 329.758 37.7784C329.758 37.108 329.88 36.517 330.125 36.0057C330.372 35.4915 330.716 35.0909 331.156 34.804C331.599 34.5142 332.116 34.3693 332.707 34.3693C333.048 34.3693 333.385 34.4261 333.717 34.5398C334.049 34.6534 334.352 34.8381 334.625 35.0938C334.897 35.3466 335.115 35.6818 335.277 36.0994C335.439 36.517 335.52 37.0312 335.52 37.642V38.0682H330.474V37.1989H334.497C334.497 36.8295 334.423 36.5 334.275 36.2102C334.13 35.9205 333.923 35.6918 333.653 35.5241C333.386 35.3565 333.071 35.2727 332.707 35.2727C332.306 35.2727 331.96 35.3722 331.667 35.571C331.377 35.767 331.154 36.0227 330.998 36.3381C330.842 36.6534 330.764 36.9915 330.764 37.3523V37.9318C330.764 38.4261 330.849 38.8452 331.02 39.1889C331.193 39.5298 331.433 39.7898 331.74 39.9688C332.047 40.1449 332.403 40.233 332.809 40.233C333.074 40.233 333.312 40.196 333.525 40.1222C333.741 40.0455 333.927 39.9318 334.083 39.7812C334.24 39.6278 334.36 39.4375 334.446 39.2102L335.417 39.483C335.315 39.8125 335.143 40.1023 334.902 40.3523C334.66 40.5994 334.362 40.7926 334.007 40.9318C333.652 41.0682 333.252 41.1364 332.809 41.1364ZM339.964 34.4545V35.3068H336.436V34.4545H339.964ZM337.493 41V33.5511C337.493 33.1761 337.581 32.8636 337.757 32.6136C337.933 32.3636 338.162 32.1761 338.443 32.0511C338.724 31.9261 339.021 31.8636 339.333 31.8636C339.581 31.8636 339.782 31.8835 339.939 31.9233C340.095 31.9631 340.211 32 340.288 32.0341L339.998 32.9034C339.947 32.8864 339.876 32.8651 339.785 32.8395C339.697 32.8139 339.581 32.8011 339.436 32.8011C339.103 32.8011 338.863 32.8849 338.716 33.0526C338.571 33.2202 338.498 33.4659 338.498 33.7898V41H337.493ZM343.112 41.1534C342.697 41.1534 342.321 41.0753 341.983 40.919C341.645 40.7599 341.376 40.5312 341.178 40.233C340.979 39.9318 340.879 39.5682 340.879 39.142C340.879 38.767 340.953 38.4631 341.101 38.2301C341.249 37.9943 341.446 37.8097 341.693 37.6761C341.94 37.5426 342.213 37.4432 342.511 37.3778C342.813 37.3097 343.115 37.2557 343.419 37.2159C343.817 37.1648 344.139 37.1264 344.386 37.1009C344.636 37.0724 344.818 37.0256 344.932 36.9602C345.048 36.8949 345.107 36.7812 345.107 36.6193V36.5852C345.107 36.1648 344.991 35.8381 344.761 35.6051C344.534 35.3722 344.189 35.2557 343.726 35.2557C343.246 35.2557 342.869 35.3608 342.597 35.571C342.324 35.7812 342.132 36.0057 342.021 36.2443L341.067 35.9034C341.237 35.5057 341.464 35.196 341.749 34.9744C342.036 34.75 342.348 34.5937 342.686 34.5057C343.027 34.4148 343.362 34.3693 343.692 34.3693C343.902 34.3693 344.143 34.3949 344.416 34.446C344.692 34.4943 344.957 34.5952 345.213 34.7486C345.472 34.902 345.686 35.1335 345.857 35.4432C346.027 35.7528 346.112 36.1676 346.112 36.6875V41H345.107V40.1136H345.055C344.987 40.2557 344.874 40.4077 344.714 40.5696C344.555 40.7315 344.344 40.8693 344.08 40.983C343.815 41.0966 343.493 41.1534 343.112 41.1534ZM343.266 40.25C343.663 40.25 343.999 40.1719 344.271 40.0156C344.547 39.8594 344.754 39.6577 344.893 39.4105C345.036 39.1634 345.107 38.9034 345.107 38.6307V37.7102C345.064 37.7614 344.97 37.8082 344.825 37.8509C344.683 37.8906 344.518 37.9261 344.331 37.9574C344.146 37.9858 343.966 38.0114 343.79 38.0341C343.616 38.054 343.476 38.071 343.368 38.0852C343.107 38.1193 342.862 38.1747 342.635 38.2514C342.411 38.3253 342.229 38.4375 342.089 38.5881C341.953 38.7358 341.885 38.9375 341.885 39.1932C341.885 39.5426 342.014 39.8068 342.273 39.9858C342.534 40.1619 342.865 40.25 343.266 40.25ZM352.073 38.3239V34.4545H353.078V41H352.073V39.892H352.005C351.851 40.2244 351.613 40.5071 351.289 40.7401C350.965 40.9702 350.556 41.0852 350.061 41.0852C349.652 41.0852 349.289 40.9957 348.971 40.8168C348.652 40.6349 348.402 40.3622 348.221 39.9986C348.039 39.6321 347.948 39.1705 347.948 38.6136V34.4545H348.953V38.5455C348.953 39.0227 349.087 39.4034 349.354 39.6875C349.624 39.9716 349.968 40.1136 350.385 40.1136C350.635 40.1136 350.89 40.0497 351.148 39.9219C351.409 39.794 351.628 39.598 351.804 39.3338C351.983 39.0696 352.073 38.733 352.073 38.3239ZM355.926 32.2727V41H354.92V32.2727H355.926ZM360.615 34.4545V35.3068H357.223V34.4545H360.615ZM358.211 32.8864H359.217V39.125C359.217 39.4091 359.258 39.6222 359.341 39.7642C359.426 39.9034 359.534 39.9972 359.664 40.0455C359.798 40.0909 359.939 40.1136 360.086 40.1136C360.197 40.1136 360.288 40.108 360.359 40.0966C360.43 40.0824 360.487 40.071 360.529 40.0625L360.734 40.9659C360.666 40.9915 360.571 41.017 360.449 41.0426C360.326 41.071 360.172 41.0852 359.984 41.0852C359.7 41.0852 359.422 41.0241 359.149 40.902C358.879 40.7798 358.654 40.5938 358.475 40.3438C358.299 40.0938 358.211 39.7784 358.211 39.3977V32.8864ZM366.252 34.4545L367.821 37.1307L369.389 34.4545H370.548L368.434 37.7273L370.548 41H369.389L367.821 38.4602L366.252 41H365.093L367.173 37.7273L365.093 34.4545H366.252ZM376.619 35.9205L375.716 36.1761C375.659 36.0256 375.575 35.8793 375.464 35.7372C375.357 35.5923 375.209 35.473 375.021 35.3793C374.834 35.2855 374.594 35.2386 374.301 35.2386C373.901 35.2386 373.567 35.331 373.3 35.5156C373.036 35.6974 372.903 35.929 372.903 36.2102C372.903 36.4602 372.994 36.6577 373.176 36.8026C373.358 36.9474 373.642 37.0682 374.028 37.1648L375 37.4034C375.585 37.5455 376.021 37.7628 376.308 38.0554C376.595 38.3452 376.739 38.7187 376.739 39.1761C376.739 39.5511 376.631 39.8864 376.415 40.1818C376.202 40.4773 375.903 40.7102 375.52 40.8807C375.136 41.0511 374.69 41.1364 374.182 41.1364C373.514 41.1364 372.962 40.9915 372.524 40.7017C372.087 40.4119 371.81 39.9886 371.693 39.4318L372.648 39.1932C372.739 39.5455 372.911 39.8097 373.163 39.9858C373.419 40.1619 373.753 40.25 374.165 40.25C374.634 40.25 375.006 40.1506 375.281 39.9517C375.56 39.75 375.699 39.5085 375.699 39.2273C375.699 39 375.619 38.8097 375.46 38.6562C375.301 38.5 375.057 38.3835 374.727 38.3068L373.636 38.0511C373.037 37.9091 372.597 37.6889 372.315 37.3906C372.037 37.0895 371.898 36.7131 371.898 36.2614C371.898 35.892 372.001 35.5653 372.209 35.2812C372.419 34.9972 372.705 34.7741 373.065 34.6122C373.429 34.4503 373.841 34.3693 374.301 34.3693C374.949 34.3693 375.457 34.5114 375.827 34.7955C376.199 35.0795 376.463 35.4545 376.619 35.9205Z" fill="#0F67F5"/>
<path d="M232.881 41V33.7273H233.761V40.2188H237.142V41H232.881ZM239.997 41.1278C239.652 41.1278 239.338 41.0627 239.056 40.9325C238.774 40.8 238.551 40.6094 238.385 40.3608C238.219 40.1098 238.136 39.8068 238.136 39.4517C238.136 39.1392 238.198 38.8859 238.321 38.6918C238.444 38.4953 238.609 38.3414 238.815 38.2301C239.021 38.1188 239.248 38.036 239.496 37.9815C239.747 37.9247 240 37.8797 240.253 37.8466C240.584 37.804 240.853 37.772 241.059 37.7507C241.267 37.727 241.419 37.688 241.513 37.6335C241.611 37.5791 241.659 37.4844 241.659 37.3494V37.321C241.659 36.9706 241.563 36.6984 241.371 36.5043C241.182 36.3101 240.894 36.2131 240.509 36.2131C240.108 36.2131 239.795 36.3007 239.567 36.4759C239.34 36.651 239.18 36.8381 239.088 37.0369L238.293 36.7528C238.435 36.4214 238.624 36.1634 238.861 35.9787C239.1 35.7917 239.36 35.6615 239.642 35.5881C239.926 35.5123 240.205 35.4744 240.48 35.4744C240.655 35.4744 240.857 35.4957 241.084 35.5384C241.313 35.5786 241.535 35.6626 241.748 35.7905C241.963 35.9183 242.142 36.1113 242.284 36.3693C242.426 36.6274 242.497 36.973 242.497 37.4062V41H241.659V40.2614H241.616C241.56 40.3797 241.465 40.5064 241.332 40.6413C241.2 40.7763 241.023 40.8911 240.803 40.9858C240.583 41.0805 240.314 41.1278 239.997 41.1278ZM240.125 40.375C240.456 40.375 240.736 40.3099 240.963 40.1797C241.193 40.0495 241.366 39.8814 241.482 39.6754C241.6 39.4695 241.659 39.2528 241.659 39.0256V38.2585C241.624 38.3011 241.545 38.3402 241.425 38.3757C241.306 38.4089 241.169 38.4384 241.013 38.4645C240.859 38.4882 240.709 38.5095 240.562 38.5284C240.417 38.545 240.3 38.5592 240.21 38.571C239.992 38.5994 239.789 38.6456 239.599 38.7095C239.412 38.7711 239.261 38.8646 239.145 38.9901C239.031 39.1132 238.974 39.2812 238.974 39.4943C238.974 39.7855 239.082 40.0057 239.298 40.1548C239.515 40.3016 239.791 40.375 240.125 40.375ZM244.14 41V33.7273H244.979V36.4119H245.05C245.111 36.3172 245.196 36.1965 245.305 36.0497C245.416 35.9006 245.575 35.768 245.781 35.652C245.989 35.5336 246.271 35.4744 246.626 35.4744C247.086 35.4744 247.49 35.5893 247.841 35.8189C248.191 36.0485 248.465 36.3741 248.661 36.7955C248.858 37.2169 248.956 37.714 248.956 38.2869C248.956 38.8646 248.858 39.3653 248.661 39.7891C248.465 40.2105 248.192 40.5372 247.844 40.7692C247.496 40.9988 247.095 41.1136 246.64 41.1136C246.29 41.1136 246.01 41.0556 245.799 40.9396C245.588 40.8213 245.426 40.6875 245.312 40.5384C245.199 40.3868 245.111 40.2614 245.05 40.1619H244.95V41H244.14ZM244.964 38.2727C244.964 38.6847 245.025 39.0481 245.145 39.3629C245.266 39.6754 245.443 39.9205 245.675 40.098C245.907 40.2732 246.191 40.3608 246.527 40.3608C246.877 40.3608 247.17 40.2685 247.404 40.0838C247.641 39.8968 247.818 39.6458 247.937 39.331C248.057 39.0137 248.118 38.661 248.118 38.2727C248.118 37.8892 248.059 37.5436 247.94 37.2358C247.824 36.9257 247.648 36.6806 247.411 36.5007C247.177 36.3184 246.882 36.2273 246.527 36.2273C246.186 36.2273 245.899 36.3137 245.667 36.4865C245.435 36.657 245.26 36.8961 245.142 37.2038C245.023 37.5092 244.964 37.8655 244.964 38.2727ZM252.525 41.1136C251.999 41.1136 251.546 40.9976 251.165 40.7656C250.786 40.5312 250.493 40.2045 250.287 39.7855C250.084 39.3641 249.982 38.8741 249.982 38.3153C249.982 37.7566 250.084 37.2642 250.287 36.8381C250.493 36.4096 250.78 36.0758 251.147 35.8366C251.516 35.5952 251.947 35.4744 252.439 35.4744C252.724 35.4744 253.004 35.5218 253.281 35.6165C253.558 35.7112 253.81 35.8651 254.037 36.0781C254.265 36.2888 254.446 36.5682 254.581 36.9162C254.716 37.2642 254.783 37.6927 254.783 38.2017V38.5568H250.579V37.8324H253.931C253.931 37.5246 253.869 37.25 253.746 37.0085C253.626 36.767 253.453 36.5765 253.228 36.4368C253.005 36.2971 252.742 36.2273 252.439 36.2273C252.106 36.2273 251.817 36.3101 251.573 36.4759C251.331 36.6392 251.146 36.8523 251.015 37.1151C250.885 37.3778 250.82 37.6596 250.82 37.9602V38.4432C250.82 38.8551 250.891 39.2043 251.033 39.4908C251.178 39.7749 251.378 39.9915 251.633 40.1406C251.889 40.2874 252.186 40.3608 252.525 40.3608C252.745 40.3608 252.944 40.33 253.121 40.2685C253.301 40.2045 253.456 40.1098 253.586 39.9844C253.717 39.8565 253.817 39.6979 253.888 39.5085L254.698 39.7358C254.613 40.0104 254.47 40.2519 254.268 40.4602C254.067 40.6662 253.818 40.8272 253.523 40.9432C253.227 41.0568 252.894 41.1136 252.525 41.1136ZM256.896 33.7273V41H256.058V33.7273H256.896Z" fill="#E8178A"/>
<path d="M266 37.5L296 37.5" stroke="#E8178A"/>
<circle cx="295" cy="37.5" r="1" fill="#E8178A"/>
</svg>

<svg width="672" height="73" fill="none" xmlns="http://www.w3.org/2000/svg"><path fill="#F6F6F6" d="M0 0h672v73H0z"/><path d="M295.06 41v-8.73h1.05v7.8h4.06V41h-5.11Zm6.61 0v-6.55h1V41h-1Zm.51-7.64a.71.71 0 0 1-.5-.2.64.64 0 0 1-.21-.48c0-.19.07-.35.2-.48.15-.13.32-.2.51-.2.2 0 .37.07.5.2.15.13.22.3.22.48 0 .19-.07.35-.21.48a.7.7 0 0 1-.5.2Zm3.34 3.7V41h-1v-6.55h.97v1.03h.08c.16-.34.4-.6.7-.8.32-.2.72-.31 1.21-.31.45 0 .83.09 1.17.27.33.18.59.45.77.82.19.36.28.82.28 1.38V41h-1v-4.1c0-.5-.14-.9-.4-1.2a1.42 1.42 0 0 0-1.1-.43c-.33 0-.61.07-.87.21a1.5 1.5 0 0 0-.59.61c-.14.27-.22.6-.22.97Zm6.96 1.55-.02-1.24h.2l2.87-2.92h1.24l-3.05 3.09h-.09l-1.15 1.07Zm-.94 2.39v-8.73h1V41h-1Zm4.16 0-2.56-3.24.72-.7 3.12 3.94h-1.28Zm8.57 0h-2.7v-8.73h2.82c.85 0 1.57.18 2.17.53.6.34 1.07.84 1.39 1.5.32.64.48 1.42.48 2.32 0 .9-.16 1.7-.49 2.35-.32.65-.8 1.15-1.41 1.5-.62.36-1.37.53-2.26.53Zm-1.64-.94h1.57a3.5 3.5 0 0 0 1.8-.42 2.6 2.6 0 0 0 1.06-1.18 4.5 4.5 0 0 0 .35-1.84c0-.7-.12-1.31-.35-1.82-.23-.51-.57-.9-1.03-1.18a3.26 3.26 0 0 0-1.7-.41h-1.7v6.85Zm10.18 1.08a2.8 2.8 0 0 1-2.68-1.6 4 4 0 0 1-.37-1.76c0-.67.12-1.26.37-1.77a2.77 2.77 0 0 1 2.58-1.64c.34 0 .67.06 1 .17a2.5 2.5 0 0 1 1.57 1.56c.16.42.24.93.24 1.54v.43h-5.05v-.87h4.03c0-.37-.08-.7-.23-.99a1.67 1.67 0 0 0-1.56-.94 1.85 1.85 0 0 0-1.71 1.07c-.16.31-.24.65-.24 1.01v.58c0 .5.09.92.26 1.26.17.34.41.6.72.78.3.17.66.26 1.07.26.26 0 .5-.03.71-.1a1.55 1.55 0 0 0 .92-.91l.98.26c-.1.33-.28.62-.52.87s-.54.44-.9.58c-.35.14-.75.2-1.2.2Zm7.15-6.69v.86h-3.52v-.86h3.52ZM337.5 41v-7.45c0-.37.1-.69.27-.94s.4-.43.68-.56a2.53 2.53 0 0 1 1.85-.02l-.3.87a4.97 4.97 0 0 0-.2-.06c-.1-.03-.2-.04-.35-.04-.34 0-.58.08-.72.25-.15.17-.22.42-.22.74V41h-1Zm5.62.15c-.41 0-.79-.07-1.13-.23-.34-.16-.6-.39-.8-.69-.2-.3-.3-.66-.3-1.09 0-.37.07-.68.22-.91.15-.24.35-.42.6-.55.24-.14.51-.24.81-.3a14.93 14.93 0 0 1 1.88-.28c.25-.03.43-.07.54-.14.12-.07.18-.18.18-.34v-.03c0-.43-.12-.75-.35-.98-.23-.24-.57-.35-1.03-.35-.48 0-.86.1-1.13.31-.28.21-.47.44-.58.67l-.95-.34c.17-.4.4-.7.68-.93.29-.22.6-.38.94-.46a3.9 3.9 0 0 1 1.73-.06c.27.04.54.15.8.3.25.15.47.38.64.7.17.3.25.72.25 1.24V41h-1v-.89h-.06a1.97 1.97 0 0 1-.98.87c-.25.12-.58.17-.96.17Zm.16-.9a2 2 0 0 0 1-.23 1.59 1.59 0 0 0 .84-1.39v-.92a.64.64 0 0 1-.29.14 4.8 4.8 0 0 1-1.03.18l-.42.06c-.26.03-.5.08-.74.16-.22.08-.4.19-.54.34a.86.86 0 0 0-.2.6c0 .35.12.62.38.8.26.17.6.26 1 .26Zm8.8-1.93v-3.87h1V41h-1v-1.1h-.06c-.16.32-.4.6-.72.84-.33.23-.73.35-1.23.35-.4 0-.77-.1-1.09-.27a1.87 1.87 0 0 1-.75-.82 3.1 3.1 0 0 1-.27-1.39v-4.16h1v4.1c0 .47.14.85.4 1.14.27.28.62.42 1.03.42a1.71 1.71 0 0 0 1.7-1.79Zm3.86-6.05V41h-1.01v-8.73h1Zm4.69 2.18v.86h-3.4v-.86h3.4Zm-2.4-1.56h1v6.23c0 .29.04.5.12.64.09.14.2.24.32.29a1.78 1.78 0 0 0 .87.02l.2.9a2.04 2.04 0 0 1-.75.12c-.28 0-.56-.07-.83-.19-.27-.12-.5-.3-.67-.56a1.6 1.6 0 0 1-.27-.94v-6.51Zm8.03 1.56 1.57 2.68 1.57-2.68h1.16l-2.12 3.28 2.12 3.27h-1.16l-1.57-2.54-1.57 2.54h-1.16l2.08-3.27-2.08-3.28h1.16Zm10.37 1.47-.9.26c-.06-.15-.15-.3-.26-.44a1.2 1.2 0 0 0-.44-.36 1.6 1.6 0 0 0-.72-.14c-.4 0-.73.1-1 .28-.26.18-.4.4-.4.69 0 .25.1.45.28.6.18.14.46.26.85.35l.97.24c.58.15 1.02.36 1.3.66.3.29.44.66.44 1.12 0 .37-.1.7-.32 1-.22.3-.52.53-.9.7-.38.17-.83.26-1.34.26-.67 0-1.22-.15-1.66-.44a1.93 1.93 0 0 1-.83-1.27l.96-.24c.09.36.26.62.51.8.26.17.6.26 1 .26.47 0 .85-.1 1.12-.3.28-.2.42-.44.42-.72a.76.76 0 0 0-.24-.57c-.16-.16-.4-.28-.73-.35l-1.1-.26a2.6 2.6 0 0 1-1.31-.66 1.6 1.6 0 0 1-.42-1.13c0-.37.1-.7.3-.98.22-.28.5-.5.87-.67a3 3 0 0 1 1.23-.24c.65 0 1.16.14 1.53.43.37.28.63.65.79 1.12Z" fill="#0F67F5"/><path d="M232.88 41v-7.27h.88v6.49h3.38V41h-4.26Zm7.12.13a2.2 2.2 0 0 1-.94-.2c-.29-.13-.5-.32-.68-.57a1.61 1.61 0 0 1-.24-.9c0-.32.06-.57.18-.77.12-.2.29-.35.5-.46.2-.11.43-.2.68-.25a33.94 33.94 0 0 1 1.56-.23c.2-.02.36-.06.45-.12.1-.05.15-.15.15-.28v-.03c0-.35-.1-.62-.29-.82-.19-.19-.48-.29-.86-.29-.4 0-.72.1-.94.27-.23.17-.39.36-.48.56l-.8-.29c.15-.33.33-.59.57-.77.24-.19.5-.32.78-.4a3.24 3.24 0 0 1 1.44-.04c.23.04.45.12.67.25.21.13.4.32.53.58.15.26.22.6.22 1.04V41h-.84v-.74h-.04a1.63 1.63 0 0 1-.81.72c-.23.1-.5.15-.81.15Zm.13-.76c.33 0 .6-.06.83-.19a1.33 1.33 0 0 0 .7-1.15v-.77a.68.68 0 0 1-.23.12 4 4 0 0 1-.87.15l-.35.04c-.22.03-.42.08-.61.14a.94.94 0 0 0-.45.28.71.71 0 0 0-.18.5c0 .3.11.52.33.66.21.15.5.23.82.23Zm4.01.63v-7.27h.84v2.68h.07l.25-.36c.12-.15.27-.28.48-.4.2-.12.5-.18.85-.18a2.17 2.17 0 0 1 2.03 1.33c.2.42.3.91.3 1.49 0 .57-.1 1.08-.3 1.5a2.14 2.14 0 0 1-2.02 1.32 1.7 1.7 0 0 1-.84-.17 1.56 1.56 0 0 1-.49-.4l-.26-.38h-.1V41h-.81Zm.82-2.73c0 .41.06.78.19 1.1.12.3.3.55.53.73.23.17.51.26.85.26.35 0 .64-.1.87-.28.24-.18.42-.43.54-.75.12-.32.18-.67.18-1.06 0-.38-.06-.73-.18-1.03a1.6 1.6 0 0 0-.53-.74 1.4 1.4 0 0 0-.88-.27 1.4 1.4 0 0 0-1.39.97c-.12.3-.18.67-.18 1.07Zm7.56 2.84c-.52 0-.97-.11-1.36-.34a2.34 2.34 0 0 1-.87-.98c-.2-.43-.3-.92-.3-1.47 0-.56.1-1.06.3-1.48a2.3 2.3 0 0 1 2.15-1.36c.28 0 .56.04.84.14a2.08 2.08 0 0 1 1.3 1.3c.14.34.2.77.2 1.28v.36h-4.2v-.73h3.35c0-.3-.06-.58-.18-.82a1.38 1.38 0 0 0-1.31-.78c-.33 0-.62.08-.87.25-.24.16-.42.37-.56.64-.13.26-.19.54-.19.84v.48c0 .42.07.76.21 1.05.15.28.35.5.6.65.26.15.56.22.9.22.22 0 .41-.03.6-.1a1.21 1.21 0 0 0 .76-.75l.8.23c-.08.27-.22.51-.42.72-.2.2-.45.37-.75.48-.3.12-.63.17-1 .17Zm4.38-7.38V41h-.84v-7.27h.84Z" fill="#E8178A"/><path d="M266 37.5h30" stroke="#E8178A"/><circle cx="295" cy="37.5" r="1" fill="#E8178A"/></svg>
